packages/ffe-icons/icons/filled/sm/source.svg

<svg xmlns="http://www.w3.org/2000/svg" height="20" viewBox="0 -960 960 960" width="20"><path d="M180.309-212.001q-26.308 0-45.308-19t-19-45.308v-407.382q0-27.008 19-45.658 19-18.65 45.239-18.65h168.322q13.01 0 24.801 4.616 11.79 4.615 21.636 14.461l76.923 76.923h307.769q27.008 0 45.658 18.65 18.65 18.65 18.65 45.658v311.382q0 26.308-18.65 45.308t-45.658 19H180.309Zm95.691-134h240q11.05 0 18.524-7.418 7.475-7.418 7.475-18.384 0-10.966-7.475-18.581-7.474-7.615-18.524-7.615H276q-11.05 0-18.524 7.418-7.475 7.418-7.475 18.384 0 10.966 7.475 18.581 7.474 7.615 18.524 7.615Zm0-120h408q11.05 0 18.524-7.418 7.475-7.418 7.475-18.384 0-10.966-7.475-18.581-7.474-7.615-18.524-7.615H276q-11.05 0-18.524 7.418-7.475 7.418-7.475 18.384 0 10.966 7.475 18.581 7.474 7.615 18.524 7.615Z"/></svg>

<svg xmlns="http://www.w3.org/2000/svg" height="20" viewBox="0 -960 960 960" width="20"><path d="M180.31-212Q154-212 135-231q-19-19-19-45.31v-407.38q0-27.01 19-45.66Q154-748 180.24-748h168.32q13.01 0 24.8 4.62 11.79 4.61 21.64 14.46L471.92-652h307.77q27.01 0 45.66 18.65Q844-614.7 844-587.69v311.38Q844-250 825.35-231q-18.65 19-45.66 19H180.31ZM276-346h240q11.05 0 18.52-7.42 7.48-7.42 7.48-18.38 0-10.97-7.48-18.58Q527.05-398 516-398H276q-11.05 0-18.52 7.42-7.48 7.42-7.48 18.38 0 10.97 7.48 18.58Q264.95-346 276-346Zm0-120h408q11.05 0 18.52-7.42 7.48-7.42 7.48-18.38 0-10.97-7.48-18.58Q695.05-518 684-518H276q-11.05 0-18.52 7.42-7.48 7.42-7.48 18.38 0 10.97 7.48 18.58Q264.95-466 276-466Z"/></svg>
